X:115
T:The Three Sea Captains
N:Set (long) Dance   Allan's  # 115  pp29
N:Trad/Anon
N:CONVERTED FROM NOTEWORTHY COMPOSER  (WWW.NOTEWORTHYSOFTWARE.COM) BY
N:ABC2NWC (HTTP://MEMBERS.AOL.COM/ABACUSMUSIC/), WITH
Z: (INTO NWC) VINCE BRENNAN 2002   (WWW.SOSYOURMOM.COM)
I:abc2nwc
M:6/8
L:1/8
K:G
D|G2G BGB|c2A F2D|G2G BGB|d2B G2B|
cec A2c|BdBG2B|A2B c2B|ABG FED|
G2G BGB|c2A F2A|G2G BGB|d2B G2B|
cec A2c|BdB G2F|EcB AGF|G3G2:|
|:d|g2g dcB|(ABc) (def)|g2g dBd|ecA A2f|
gfg bge|fef afd|e2f g2f|ed^c d3|
cBc ecA|BAB dBG|A2B c2B|ABG FED|
G2G BGB|c2A F2A|G2G BGB|d2B G2B|
cec A2c|BdB G2F|EcB AGF|G3G2:|
